img/as-icon.svg

<svg viewBox="0 0 42 42" fill="none" xmlns="http://www.w3.org/2000/svg">
<rect x="0.35" y="0.35" width="41.3" height="41.3" rx="7.65" stroke="#292929" stroke-width="0.7"/>
<g clip-path="url(#clip0)">
<path d="M31.3294 25.9314C31.3294 25.8894 31.3294 25.8894 31.3294 25.8473V25.4265L31.119 25.3003C29.2256 24.2905 28.3421 22.86 28.3421 20.9245C28.3421 19.2836 29.0573 17.8951 30.3617 16.9695L30.8666 16.7171L30.53 16.2963C29.6885 15.2445 28.258 13.814 26.028 13.814C25.6031 13.814 25.2079 13.9183 24.8159 14.0733C25.7387 13.0745 26.2384 11.8067 26.2384 10.3638C26.2384 10.1114 26.2384 9.85894 26.1963 9.56441V9.48023V9.43817L26.1542 9.31193C26.1122 9.22776 26.0701 9.10157 25.9439 9.05951C25.8176 9.01744 25.7335 8.97533 25.6073 9.01744C23.3773 9.64858 21.0211 11.4157 21.0211 14.5292C21.0211 14.7087 21.0214 14.8885 21.0404 15.087C20.6736 14.9913 20.3519 14.812 20.0113 14.6134C19.4223 14.2768 18.7912 13.8981 17.8234 13.8981C13.5739 13.8981 10.6287 17.769 10.6287 21.2191C10.6287 23.1125 11.2177 26.3943 12.9007 29.4237C14.205 31.7799 15.7197 33.0001 17.3185 33.0001C17.9076 33.0001 18.4966 32.7897 19.1698 32.5793C19.843 32.2848 20.6004 32.0324 21.3577 32.0324C21.9889 32.0324 22.6199 32.2848 23.2511 32.4952C23.8822 32.7056 24.5554 32.958 25.2286 32.958C28.5525 32.958 31.3715 28.7927 31.3715 26.184C31.3715 26.0997 31.3294 26.0156 31.3294 25.9314ZM25.3548 9.98513C25.3969 10.1534 25.3969 10.2797 25.3548 10.4059C25.3548 13.267 23.209 14.5292 21.8626 15.0341C21.8206 14.8237 21.8206 14.6554 21.8206 14.5292C21.8205 12.0889 23.5876 10.6162 25.3548 9.98513ZM30.53 26.0156C30.53 26.0576 30.53 26.0997 30.53 26.1418C30.53 29.2974 27.2482 32.0743 25.2286 32.0743C24.6816 32.0743 24.0925 31.864 23.5035 31.6536C22.7882 31.4011 22.073 31.1487 21.3156 31.1487C20.39 31.1487 19.5485 31.4433 18.8332 31.7377C18.2863 31.9481 17.7393 32.1585 17.3185 32.1585C15.7197 32.1585 14.4154 30.4755 13.6581 29.045C12.0592 26.1418 11.4702 23.0283 11.4702 21.219C11.4702 17.3903 14.8362 14.7395 17.8234 14.7395C18.5387 14.7395 19.0436 15.0341 19.6327 15.3707C20.2217 15.7073 20.8108 16.0439 21.6523 16.0439C22.7462 16.0439 23.6298 15.6231 24.3871 15.2444C25.0183 14.9499 25.5232 14.6975 26.0701 14.6975C27.711 14.6975 28.847 15.581 29.6465 16.5067C28.3001 17.5586 27.5427 19.1153 27.5427 20.9246C27.5427 23.1125 28.5105 24.7533 30.53 25.8894C30.53 25.9314 30.53 25.9735 30.53 26.0156Z" fill="#292929"/>
</g>
<defs>
<clipPath id="clip0">
<rect width="24" height="24" fill="white" transform="translate(9 9)"/>
</clipPath>
</defs>
</svg>

<svg viewBox="0 0 42 42" fill="none" xmlns="http://www.w3.org/2000/svg"><rect x=".35" y=".35" width="41.3" height="41.3" rx="7.65" stroke="#292929" stroke-width=".7"/><g clip-path="url(#clip0)"><path d="M31.33 25.931v-.504l-.211-.127c-1.893-1.01-2.777-2.44-2.777-4.376 0-1.64.715-3.029 2.02-3.954l.505-.253-.337-.42c-.841-1.053-2.272-2.483-4.502-2.483-.425 0-.82.104-1.212.26.923-1 1.422-2.267 1.422-3.71 0-.253 0-.505-.042-.8v-.126l-.042-.126c-.042-.084-.084-.21-.21-.252-.126-.043-.21-.085-.337-.043-2.23.632-4.586 2.399-4.586 5.512 0 .18 0 .36.02.558-.367-.096-.69-.275-1.03-.474-.589-.336-1.22-.715-2.188-.715-4.25 0-7.194 3.871-7.194 7.321 0 1.893.589 5.175 2.272 8.205C14.205 31.78 15.72 33 17.319 33c.589 0 1.178-.21 1.85-.42.674-.295 1.431-.548 2.189-.548.63 0 1.262.253 1.893.463.631.21 1.304.463 1.978.463 3.323 0 6.143-4.165 6.143-6.774 0-.084-.043-.168-.043-.253zM25.354 9.985a.713.713 0 010 .42c0 2.862-2.146 4.124-3.492 4.63-.042-.211-.042-.38-.042-.506 0-2.44 1.767-3.913 3.534-4.544zm5.175 16.03v.127c0 3.155-3.282 5.932-5.301 5.932-.547 0-1.136-.21-1.726-.42-.715-.253-1.43-.505-2.187-.505-.926 0-1.767.294-2.483.589-.547.21-1.094.42-1.514.42-1.6 0-2.904-1.683-3.66-3.113-1.6-2.903-2.189-6.017-2.189-7.826 0-3.829 3.366-6.48 6.353-6.48.716 0 1.22.295 1.81.632.589.336 1.178.673 2.02.673 1.093 0 1.977-.42 2.734-.8.631-.294 1.136-.546 1.683-.546 1.641 0 2.777.883 3.576 1.809-1.346 1.052-2.103 2.608-2.103 4.418 0 2.188.968 3.828 2.987 4.964v.127z" fill="#292929"/></g><defs><clipPath id="clip0"><path fill="#fff" transform="translate(9 9)" d="M0 0h24v24H0z"/></clipPath></defs></svg>
